X: 11381
T: The Western Sky was purpled o'er with ev're pleasing ray
C: Andreozzi
B: "Man of Feeling", Gaetano Brandi, ed. v.1 p.138-140
F: http://archive.org/details/manoffeelingorge00rugg
Z: 2012 John Chambers <jc:trillian.mit.edu>
M: C
L: 1/8
Q: "Vivace"
K: D
%%graceslurs no
%%continueall
A2 | (dA) (FA) d2 e2 | (dA) (FA) d2 e2 |
w: The West-*ern* Sky was pur-*pled* o'er with
(d>c) (d>e) f3 d | c2 A>A A2 A2 | (c>d) (e>f) g2 e2 |
w: ev'-*ry* pleas-ing ray,*** and flocks* re-*vi-ving
(d>e) (f>g) Ha2 zA | (F>G) (A>B) A2 c2 |
w: felt* no* more the sul-*try* heat of
d2 d>d d2 zA | f3 e {e}d2 (cB) | A2 A2 (AF) (GA) |
w: day,*** When from an ha-zels* art-less bow'r* soft*
B3 d (c>e) (g>e) | d4 z2 A2 | f3 e {e}d2 (cB) |
w: war-bled Stre-*phons* tongue, He blest the scene, he*
A2 A2 (AF) (GA) | d2 ^G2 G2 G2 | HA4 z2 A2 |
w: blest the bow'r,* while* Nan-cy's praise he sung, he
(dA) (df) {f}e2 (dc) | (dA) (df) {f}e2 (dc) |
w: blest* the* scent, he* blest* the* bow'r, while*
(dA) (df) {f}e2 (dc) | d4 e4 | (dA) (df) {f}e2 (dc) |
w: Nan-*cy's* praise he* sung, while Nan-*cy's* praise he*
d4 e4 | (dA) (df) {f}e2 (dc) | d4 fdfa |
w: sung, while Nan-(cy's* praise he* sung.
{a}g2 fe {f}e2 dc | d2 d>d "Da Capo"d2 :|
%
W: 2 Let Fops with fickle falshood range,
W: \t The paths of wanton Love;
W: Whilst weeping Maids lament their change,
W: \t And sadden ev'ry Grove;
W: But endless blessings crown the day,
W: \t I saw fair Esham's dale;
W: And every blessing find its way,
W: \t To Nancy of the Vale.
W:
W: 3 Struck with her charms and geatle truth,
W: \t I clasp'd the constant Fair;
W: To her alone I gave my Youth,
W: \t And vow my future Care;
W: And when this vow shall faithless prove,
W: \t Or I those charms forego;
W: The stream that saw our tender Love,
W: \t That stream shall cease to flow.
%
%%center -

% Continuation of previous page.

% Continuation of previous page.

%%sep 2 1 500
%%sep 1 1 500

